X: 5
T: Ramnee Ceilidh
Z: JACKB
S: https://thesession.org/tunes/2639#setting26609
R: reel
M: 4/4
L: 1/8
K: Dmaj
|:dBBd A2 de|fdgf e2de|faaf e2fe|d3e dBAB|
dBBd A2 de|fdgf e2de|faaf e2fe|1 dBAB d2-d2:|2 dBAB d3e||
|:f3A Bd e2|-ed d2 edBd|f3A Bde2|-e3f gfed|
f3A Bd e2|-ed d2 edBd|faaf e2fe|1dBAB d2de:|2 dBAB d4||
